Themes/OneUI/assets/svg/home-squircle.svg

<?xml version="1.0" encoding="UTF-8" standalone="no"?>
<svg
   width="28.000013"
   height="28.000021"
   viewBox="0 0 28.000013 28.000021"
   fill="none"
   version="1.1"
   id="svg795"
   sodipodi:docname="home-squircle.svg"
   xmlns:inkscape="http://www.inkscape.org/namespaces/inkscape"
   xmlns:sodipodi="http://sodipodi.sourceforge.net/DTD/sodipodi-0.dtd"
   xmlns="http://www.w3.org/2000/svg"
   xmlns:svg="http://www.w3.org/2000/svg">
  <sodipodi:namedview
     id="namedview797"
     pagecolor="#ffffff"
     bordercolor="#666666"
     borderopacity="1.0"
     inkscape:showpageshadow="2"
     inkscape:pageopacity="0.0"
     inkscape:pagecheckerboard="0"
     inkscape:deskcolor="#d1d1d1" />
  <g
     clip-path="url(#clip0_1_6530)"
     id="g788">
    <path
       d="M 24.856,3.14401 C 23.13,1.52161 20.7739,0.601214 18.1738,0.256914 15.6907,-0.072186 14,0.00881404 14,0.00881404 c 0,0 -1.691,-0.08100004 -4.1742,0.24809996 -2.6,0.3443 -4.956,1.264696 -6.6815,2.887096 -1.6228,1.7258 -2.543102,4.0819 -2.887602,6.6819 -0.3290998,2.48299 -0.24779977,4.17399 -0.24779977,4.17399 0,0 -0.08130003,1.6908 0.24779977,4.174 0.3445,2.5998 1.264802,4.9561 2.887402,6.6819 1.7257,1.6226 4.0817,2.5428 6.6817,2.8875 C 12.309,28.0722 14,27.9912 14,27.9912 c 0,0 1.6907,0.081 4.1738,-0.2479 2.6001,-0.3447 4.9562,-1.2649 6.6818,-2.8875 1.623,-1.7258 2.5432,-4.0821 2.8877,-6.6819 0.3289,-2.4832 0.2479,-4.174 0.2479,-4.174 0,0 0.081,-1.691 -0.2479,-4.17399 -0.3445,-2.6 -1.2647,-4.9561 -2.8873,-6.6819 z"
       fill="#29b9d8"
       id="path784" />
    <path
       d="M 20.4002,11.0749 14.7095,6.23309 c -0.3896,-0.3199 -1.0285,-0.3199 -1.4181,0 L 7.5998,11.0749 c -0.3905,0.32 -0.7095,0.9928 -0.7095,1.497 v 6.1435 c 0,1.2604 1.0313,2.2916 2.2917,2.2916 h 1.9534 v -5.4294 c 0,-0.7562 0.6188,-1.375 1.375,-1.375 h 2.75 c 0.7563,0 1.375,0.6188 1.375,1.375 v 5.4294 h 2.1826 c 1.2604,0 2.2917,-1.0312 2.2917,-2.2916 v -6.1435 c 0,-0.5042 -0.319,-1.177 -0.7095,-1.497 z"
       fill="#ffffff"
       id="path786" />
  </g>
  <defs
     id="defs793">
    <clipPath
       id="clip0_1_6530">
      <rect
         width="28"
         height="28"
         fill="#ffffff"
         id="rect790"
         x="0"
         y="0" />
    </clipPath>
  </defs>
</svg>

<svg width="28" height="28" viewBox="0 0 28 28" fill="none" xmlns="http://www.w3.org/2000/svg">
<g clip-path="url(#clip0_1_6530)">
<path d="M24.856 3.14401C23.13 1.52161 20.7739 0.601214 18.1738 0.256914C15.6907 -0.072186 14 0.00881404 14 0.00881404C14 0.00881404 12.309 -0.072186 9.8258 0.256914C7.2258 0.601214 4.8698 1.52161 3.1443 3.14401C1.5215 4.86981 0.601198 7.22591 0.256698 9.82591C-0.0724018 12.3089 0.00889823 13.9999 0.00889823 13.9999C0.00889823 13.9999 -0.0724018 15.6907 0.256698 18.1739C0.601198 20.7737 1.5215 23.13 3.1441 24.8558C4.8698 26.4784 7.2258 27.3986 9.8258 27.7433C12.309 28.0722 14 27.9912 14 27.9912C14 27.9912 15.6907 28.0722 18.1738 27.7433C20.7739 27.3986 23.13 26.4784 24.8556 24.8558C26.4786 23.13 27.3988 20.7737 27.7433 18.1739C28.0722 15.6907 27.9912 13.9999 27.9912 13.9999C27.9912 13.9999 28.0722 12.3089 27.7433 9.82591C27.3988 7.22591 26.4786 4.86981 24.856 3.14401Z" fill="#29B9D8"/>
<path d="M20.4002 11.0749L14.7095 6.23309C14.3199 5.91319 13.681 5.91319 13.2914 6.23309L7.5998 11.0749C7.2093 11.3949 6.8903 12.0677 6.8903 12.5719V18.7154C6.8903 19.9758 7.9216 21.007 9.182 21.007H11.1354V15.5776C11.1354 14.8214 11.7542 14.2026 12.5104 14.2026H15.2604C16.0167 14.2026 16.6354 14.8214 16.6354 15.5776V21.007H18.818C20.0784 21.007 21.1097 19.9758 21.1097 18.7154V12.5719C21.1097 12.0677 20.7907 11.3949 20.4002 11.0749Z" fill="white"/>
</g>
<defs>
<clipPath id="clip0_1_6530">
<rect width="28" height="28" fill="white"/>
</clipPath>
</defs>
</svg>
